svg/RightHanded/pointer.svg

<?xml version="1.0" encoding="UTF-8" standalone="no"?>
<!-- Created with Inkscape (http://www.inkscape.org/) -->

<svg
   xmlns:dc="http://purl.org/dc/elements/1.1/"
   xmlns:cc="http://creativecommons.org/ns#"
   xmlns:rdf="http://www.w3.org/1999/02/22-rdf-syntax-ns#"
   xmlns:svg="http://www.w3.org/2000/svg"
   xmlns="http://www.w3.org/2000/svg"
   xmlns:xlink="http://www.w3.org/1999/xlink"
   xmlns:sodipodi="http://sodipodi.sourceforge.net/DTD/sodipodi-0.dtd"
   xmlns:inkscape="http://www.inkscape.org/namespaces/inkscape"
   version="1.0"
   width="500"
   height="500"
   viewBox="0 0 1000 1000"
   id="page"
   xml:space="preserve"
   inkscape:version="0.48.2 r9819"
   sodipodi:docname="pointer.svg"><sodipodi:namedview
     pagecolor="#ffffff"
     bordercolor="#666666"
     borderopacity="1"
     objecttolerance="10"
     gridtolerance="10"
     guidetolerance="10"
     inkscape:pageopacity="0"
     inkscape:pageshadow="2"
     inkscape:window-width="923"
     inkscape:window-height="595"
     id="namedview20"
     showgrid="false"
     inkscape:zoom="0.472"
     inkscape:cx="-90.042373"
     inkscape:cy="250"
     inkscape:window-x="0"
     inkscape:window-y="0"
     inkscape:window-maximized="0"
     inkscape:current-layer="page" /><metadata
     id="metadata14"><rdf:RDF><cc:Work
         rdf:about=""><dc:format>image/svg+xml</dc:format><dc:type
           rdf:resource="http://purl.org/dc/dcmitype/StillImage" /><dc:title /></cc:Work></rdf:RDF></metadata><defs
     id="defs38"><linearGradient
       id="linearGradient1307"><stop
         id="stop1309"
         style="stop-color:#999999;stop-opacity:1"
         offset="0" /><stop
         id="stop1311"
         style="stop-color:#555555;stop-opacity:1"
         offset="1" /></linearGradient><linearGradient
       x1="252.50525"
       y1="118.78046"
       x2="252.50525"
       y2="730.68188"
       id="linearGradient1313"
       xlink:href="#linearGradient1307"
       gradientUnits="userSpaceOnUse" /><linearGradient
       x1="252.50525"
       y1="118.78046"
       x2="252.50525"
       y2="730.68188"
       id="linearGradient1313-2"
       xlink:href="#linearGradient1307-2"
       gradientUnits="userSpaceOnUse" /><linearGradient
       id="linearGradient1307-2"><stop
         id="stop1309-7"
         style="stop-color:#999999;stop-opacity:1"
         offset="0" /><stop
         id="stop1311-7"
         style="stop-color:#555555;stop-opacity:1"
         offset="1" /></linearGradient><filter
       x="-0.26953629"
       y="-0.21629769"
       width="1.5390726"
       height="1.4325954"
       color-interpolation-filters="sRGB"
       id="filter3793"><feGaussianBlur
         id="feGaussianBlur3795"
         stdDeviation="53.344545" /></filter></defs><path
     d="m 1474.8732,819.15592 c -13.42,-21.415 -30.825,-89.003 -37.103,-113.409 -13.976,-54.33299 -36.708,-138.256 -13.849,-193.056 7.564,-18.136 28.484,-32.794 48.536,-28.094 59.461,13.938 62.108,65.509 70.669,114.871 2.052,11.835 15.164,66.45201 12.064,95.621 4.636,-27.54499 -4.097,-43.52699 5.732,-55.91199 8.509,-10.722 31.189,-18.44501 49.813,-16.98701 16.075,1.259 41.12,10.95801 50.454,39.89901 3.5,10.851 3.616,39.74399 -4,59.99999 9.391,-30.737 45,-56.99999 68,-53.99999 27.614,3.602 49.031,11.74999 51,45.99999 0.878,15.277 -14.034,48.847 -20,63 12.885,-14.541 48.451,-22.402 64,-16 17,7 23.787,28.084 27,57 2,18 -2.312,70.709 -13,103 -6.371,19.245 -23.041,53.521 -38,79.99998 -9.595,16.984 -22.117,32.599 -37,45 -20.629,17.19 -41.905,25.447 -67.3,27.63 -30.605,2.633 -61.664,2.855 -92.207,-1.498 -40.453,-5.766 -77.122,-19.684 -111.247,-44.924 -38.259,-28.29798 -69.9,-88.90998 -91.421,-125.80398 -23.312,-39.966 -26.38,-64.939 -23.382,-93.646 1.976,-18.916 13.854,-43.91 26.671,-49.886 13.89,-6.478 32.76,-12.787 46.992,-6.309"
     transform="matrix(1.2,0,0,1.2,-1432.2034,-390.86203)"
     id="path1402-0"
     style="opacity:0.15;fill:#111111;fill-opacity:1;stroke:none;filter:url(#filter3793)" /><path
     d="m 364.70371,464.22609 c -13.42,-21.415 -30.825,-89.003 -37.103,-113.409 -13.976,-54.333 -36.708,-138.25601 -13.849,-193.05601 7.564,-18.136 28.484,-32.794 48.536,-28.094 59.461,13.938 62.108,65.509 70.669,114.871 2.052,11.835 15.164,66.45201 12.064,95.62101 4.636,-27.545 -4.097,-43.527 5.732,-55.912 8.509,-10.722 31.189,-18.44501 49.813,-16.98701 16.075,1.259 41.12,10.95801 50.454,39.89901 3.5,10.851 3.616,39.744 -4,60 9.391,-30.737 45,-57 68,-54 27.614,3.602 49.031,11.75 51,46 0.878,15.277 -14.034,48.847 -20,63 12.885,-14.541 48.451,-22.402 64,-16 17,7 23.787,28.084 27,57 2,18 -2.312,70.709 -13,103 -6.371,19.245 -23.041,53.521 -38,80 -9.595,16.984 -22.117,32.599 -37,45 -20.629,17.19 -41.905,25.447 -67.3,27.63 -30.605,2.633 -61.664,2.855 -92.207,-1.498 -40.453,-5.766 -77.122,-19.684 -111.247,-44.924 -38.259,-28.298 -69.9,-88.91 -91.421,-125.804 -23.312,-39.966 -26.38,-64.939 -23.382,-93.646 1.976,-18.916 13.854,-43.91 26.671,-49.886 13.89,-6.478 32.76,-12.787 46.992,-6.309"
     id="path1402"
     style="fill:url(#linearGradient1313);fill-opacity:1;stroke:#000000;stroke-width:20;stroke-linecap:round;stroke-linejoin:round;opacity:0.75" /><path
     d="m 561.13978,507.79571 c 0,43.01075 -17.68817,94.37634 -17.68817,94.37634"
     id="path1391"
     style="fill:none;stroke:#000000;stroke-width:20;stroke-linecap:round;stroke-linejoin:round;opacity:0.75" /><path
     d="m 637.76344,553.17205 c -1.34409,30.91398 -29,66 -29,66"
     id="path1393"
     style="fill:none;stroke:#000000;stroke-width:20;stroke-linecap:round;stroke-linejoin:round;opacity:0.75" /><path
     d="m 472.76344,507.17205 c 8.06452,30.91398 -3,84 -3,84"
     id="path1395"
     style="fill:none;stroke:#000000;stroke-width:20;stroke-linecap:round;stroke-linejoin:round;opacity:0.75" /></svg>

<?xml version="1.0" encoding="UTF-8" standalone="no"?>
<!-- Created with Inkscape (http://www.inkscape.org/) -->
<svg
   xmlns:svg="http://www.w3.org/2000/svg"
   xmlns="http://www.w3.org/2000/svg"
   xmlns:xlink="http://www.w3.org/1999/xlink"
   version="1.0"
   width="500"
   height="500"
   viewBox="0 0 1000 1000"
   id="page"
   xml:space="preserve"><defs
     id="defs38"><linearGradient
       id="linearGradient1307"><stop
         id="stop1309"
         style="stop-color:#999999;stop-opacity:1"
         offset="0" /><stop
         id="stop1311"
         style="stop-color:#555555;stop-opacity:1"
         offset="1" /></linearGradient><linearGradient
       x1="252.50525"
       y1="118.78046"
       x2="252.50525"
       y2="730.68188"
       id="linearGradient1313"
       xlink:href="#linearGradient1307"
       gradientUnits="userSpaceOnUse" /></defs><path
     d="M 364.70371,464.22609 C 351.28371,442.81109 333.87871,375.22309 327.60071,350.81709 C 313.62471,296.48409 290.89271,212.56108 313.75171,157.76108 C 321.31571,139.62508 342.23571,124.96708 362.28771,129.66708 C 421.74871,143.60508 424.39571,195.17608 432.95671,244.53808 C 435.00871,256.37308 448.12071,310.99009 445.02071,340.15909 C 449.65671,312.61409 440.92371,296.63209 450.75271,284.24709 C 459.26171,273.52509 481.94171,265.80208 500.56571,267.26008 C 516.64071,268.51908 541.68571,278.21809 551.01971,307.15909 C 554.51971,318.01009 554.63571,346.90309 547.01971,367.15909 C 556.41071,336.42209 592.01971,310.15909 615.01971,313.15909 C 642.63371,316.76109 664.05071,324.90909 666.01971,359.15909 C 666.89771,374.43609 651.98571,408.00609 646.01971,422.15909 C 658.90471,407.61809 694.47071,399.75709 710.01971,406.15909 C 727.01971,413.15909 733.80671,434.24309 737.01971,463.15909 C 739.01971,481.15909 734.70771,533.86809 724.01971,566.15909 C 717.64871,585.40409 700.97871,619.68009 686.01971,646.15909 C 676.42471,663.14309 663.90271,678.75809 649.01971,691.15909 C 628.39071,708.34909 607.11471,716.60609 581.71971,718.78909 C 551.11471,721.42209 520.05571,721.64409 489.51271,717.29109 C 449.05971,711.52509 412.39071,697.60709 378.26571,672.36709 C 340.00671,644.06909 308.36571,583.45709 286.84471,546.56309 C 263.53271,506.59709 260.46471,481.62409 263.46271,452.91709 C 265.43871,434.00109 277.31671,409.00709 290.13371,403.03109 C 304.02371,396.55309 322.89371,390.24409 337.12571,396.72209"
     id="path1402"
     style="opacity:1;fill:url(#linearGradient1313);fill-opacity:1;stroke:#000000;stroke-width:20;stroke-linecap:round;stroke-linejoin:round" /><path
     d="M 561.13978,507.79571 C 561.13978,550.80646 543.45161,602.17205 543.45161,602.17205"
     id="path1391"
     style="opacity:1;fill:none;stroke:#000000;stroke-width:20;stroke-linecap:round;stroke-linejoin:round" /><path
     d="M 637.76344,553.17205 C 636.41935,584.08603 608.76344,619.17205 608.76344,619.17205"
     id="path1393"
     style="opacity:1;fill:none;stroke:#000000;stroke-width:20;stroke-linecap:round;stroke-linejoin:round" /><path
     d="M 472.76344,507.17205 C 480.82796,538.08603 469.76344,591.17205 469.76344,591.17205"
     id="path1395"
     style="opacity:1;fill:none;stroke:#000000;stroke-width:20;stroke-linecap:round;stroke-linejoin:round" /></svg>
